Lila_HD/apps/scalable/facebook-messenger.svg

<?xml version="1.0" encoding="UTF-8" standalone="no"?>
<!-- Created with Inkscape (http://www.inkscape.org/) -->

<svg
   xmlns:dc="http://purl.org/dc/elements/1.1/"
   xmlns:cc="http://creativecommons.org/ns#"
   xmlns:rdf="http://www.w3.org/1999/02/22-rdf-syntax-ns#"
   xmlns:svg="http://www.w3.org/2000/svg"
   xmlns="http://www.w3.org/2000/svg"
   xmlns:xlink="http://www.w3.org/1999/xlink"
   xmlns:sodipodi="http://sodipodi.sourceforge.net/DTD/sodipodi-0.dtd"
   xmlns:inkscape="http://www.inkscape.org/namespaces/inkscape"
   width="96"
   height="96"
   id="svg13094"
   version="1.1"
   inkscape:version="0.92.2 5c3e80d, 2017-08-06"
   sodipodi:docname="facebook-messenger.svg">
  <sodipodi:namedview
     id="base"
     pagecolor="#ffffff"
     bordercolor="#666666"
     borderopacity="1.0"
     inkscape:pageopacity="0"
     inkscape:pageshadow="2"
     inkscape:zoom="5.9987602"
     inkscape:cx="47.999999"
     inkscape:cy="48"
     inkscape:document-units="px"
     inkscape:current-layer="svg13094"
     showgrid="false"
     inkscape:snap-bbox="true"
     inkscape:bbox-paths="true"
     inkscape:bbox-nodes="true"
     inkscape:snap-bbox-edge-midpoints="true"
     inkscape:snap-bbox-midpoints="true"
     inkscape:object-paths="true"
     inkscape:snap-intersection-paths="true"
     inkscape:object-nodes="true"
     inkscape:snap-smooth-nodes="true"
     inkscape:snap-midpoints="true"
     inkscape:snap-object-midpoints="true"
     inkscape:snap-center="true"
     showguides="true"
     inkscape:guide-bbox="true"
     inkscape:window-width="1280"
     inkscape:window-height="976"
     inkscape:window-x="0"
     inkscape:window-y="20"
     inkscape:window-maximized="1"
     inkscape:snap-global="false"
     fit-margin-top="0"
     fit-margin-left="0"
     fit-margin-right="0"
     fit-margin-bottom="0"
     showborder="true"
     inkscape:showpageshadow="false"
     inkscape:snap-page="true">
    <inkscape:grid
       type="xygrid"
       id="grid3075"
       empspacing="5"
       visible="true"
       enabled="true"
       snapvisiblegridlinesonly="true"
       originx="1.6362304e-08"
       originy="18"
       spacingx="1"
       spacingy="1" />
  </sodipodi:namedview>
  <defs
     id="defs13096">
    <linearGradient
       y2="47.000011"
       x2="90"
       y1="47.000011"
       x1="6"
       gradientTransform="matrix(1.1071428,0,0,1.1071426,-5.1428589,-4.035687)"
       gradientUnits="userSpaceOnUse"
       id="linearGradient4071"
       xlink:href="#linearGradient6139-0"
       inkscape:collect="always" />
    <linearGradient
       id="linearGradient6139-0">
      <stop
         style="stop-color:#adb8c1;stop-opacity:1"
         offset="0"
         id="stop6141-2" />
      <stop
         id="stop6151-0"
         offset="0.25"
         style="stop-color:#ffffff;stop-opacity:1;" />
      <stop
         id="stop6147-1"
         offset="0.5"
         style="stop-color:#90a0aa;stop-opacity:1" />
      <stop
         style="stop-color:#f9fafb;stop-opacity:1"
         offset="0.75"
         id="stop6149-4" />
      <stop
         style="stop-color:#adb9c1;stop-opacity:1"
         offset="1"
         id="stop6143-4" />
    </linearGradient>
    <linearGradient
       gradientUnits="userSpaceOnUse"
       y2="88.171875"
       x2="94.5"
       y1="88.171875"
       x1="1.5"
       id="linearGradient4129"
       xlink:href="#linearGradient3832-0-6-1-1"
       inkscape:collect="always"
       gradientTransform="translate(-3e-6,2.6e-5)" />
    <linearGradient
       id="linearGradient3832-0-6-1-1">
      <stop
         id="stop3834-6-3-7-1"
         offset="0"
         style="stop-color:#000000;stop-opacity:1;" />
      <stop
         style="stop-color:#000000;stop-opacity:0.58823532;"
         offset="0.1"
         id="stop3872-2-4" />
      <stop
         id="stop3844-6-2-7-6"
         offset="0.89999998"
         style="stop-color:#000000;stop-opacity:0.58823532;" />
      <stop
         id="stop3836-5-0-2-9"
         offset="1"
         style="stop-color:#000000;stop-opacity:1;" />
    </linearGradient>
    <radialGradient
       r="43.199203"
       fy="44.892841"
       fx="13.948145"
       cy="44.892841"
       cx="13.948145"
       gradientTransform="matrix(0.97513378,0,0,0.04919072,33.898692,80.166722)"
       gradientUnits="userSpaceOnUse"
       id="radialGradient7462"
       xlink:href="#linearGradient3737"
       inkscape:collect="always" />
    <linearGradient
       id="linearGradient3737">
      <stop
         id="stop3739"
         style="stop-color:#ffffff;stop-opacity:1"
         offset="0" />
      <stop
         id="stop3741"
         style="stop-color:#ffffff;stop-opacity:0"
         offset="1" />
    </linearGradient>
    <radialGradient
       r="43.199203"
       fy="44.892841"
       fx="13.948145"
       cy="44.892841"
       cx="13.948145"
       gradientTransform="matrix(0.88832663,0,0,0.04919072,31.544518,-90.168303)"
       gradientUnits="userSpaceOnUse"
       id="radialGradient7464"
       xlink:href="#linearGradient3737"
       inkscape:collect="always" />
    <linearGradient
       gradientTransform="translate(-2.115486e-7,2.4738393e-5)"
       y2="14.514202"
       x2="50.527882"
       y1="-28.64156"
       x1="2.7713892"
       gradientUnits="userSpaceOnUse"
       id="linearGradient4767"
       xlink:href="#linearGradient3737"
       inkscape:collect="always" />
    <clipPath
       clipPathUnits="userSpaceOnUse"
       id="clipPath4156-4-1">
      <path
         style="opacity:0.6;fill:#ffffff;fill-opacity:1;stroke:none"
         d="m 27.046336,-55.695463 -14.21366,13.321486 h 0.06127 l 15.653407,21.770763 10.231384,-10.546177 C 38.561832,-32.30156 27.468089,-54.819245 27.046336,-55.695463 Z M 9.6468554,-39.382809 -5.2407289,-25.32124 15.987863,-7.8059573 26.372412,-18.382966 Z m 31.4906096,12.951445 -9.741259,9.713584 8.944804,12.4580526 7.780753,-7.5550056 z m -49.8397109,4.378822 -13.7541661,12.9822847 26.2830181,13.84571 0.06127,-0.0617 -0.122531,-0.0617 L 13.598503,-5.4007374 -8.7022409,-22.052595 Z m 38.0154159,7.400825 -9.802525,9.7752596 11.579232,9.5594001 7.62759,-7.40083 -8.669108,-11.0087257 z m 20.187073,5.6739697 -7.382526,7.2158 6.187844,8.54179 5.820249,-6.13651996 z m -32.195166,6.32154 -9.5574606,9.49772 13.6622686,7.1849703 7.933918,-7.6783603 z m 23.311629,2.37443004 -7.10683,6.93826996 8.362778,6.9074403 5.360756,-5.6739699 -0.06127,-0.0925 -0.0919,0.12335 -6.463539,-8.20258036 z m -8.730374,8.54178036 -7.505057,7.3391599 10.353916,5.45811 c 1.397496,-1.32103 5.67514,-6.12292 5.850882,-6.32154 z"
         id="path4158-0-8"
         inkscape:connector-curvature="0" />
    </clipPath>
    <filter
       inkscape:collect="always"
       style="color-interpolation-filters:sRGB"
       id="filter4692"
       x="-0.011687668"
       width="1.0233753"
       y="-0.012329483"
       height="1.024659">
      <feGaussianBlur
         inkscape:collect="always"
         stdDeviation="0.29631316"
         id="feGaussianBlur4694" />
    </filter>
    <filter
       inkscape:collect="always"
       style="color-interpolation-filters:sRGB"
       id="filter4696"
       x="-0.015785093"
       width="1.0315702"
       y="-0.03510177"
       height="1.0702035">
      <feGaussianBlur
         inkscape:collect="always"
         stdDeviation="0.29631316"
         id="feGaussianBlur4698" />
    </filter>
  </defs>
  <metadata
     id="metadata13099">
    <rdf:RDF>
      <cc:Work
         rdf:about="">
        <dc:format>image/svg+xml</dc:format>
        <dc:type
           rdf:resource="http://purl.org/dc/dcmitype/StillImage" />
        <dc:title />
      </cc:Work>
    </rdf:RDF>
  </metadata>
  <path
     inkscape:connector-curvature="0"
     id="path3288"
     d="M 89.142854,0 H 6.8571346 C 3.0582867,0 -5.5e-7,3.058285 -5.5e-7,6.8571399 V 89.142858 C -5.5e-7,92.941715 3.0582867,96 6.8571346,96 H 89.142854 c 3.798857,0 6.857147,-3.058285 6.857147,-6.857142 V 6.8571399 C 96.000001,3.058285 92.941711,0 89.142854,0 Z"
     style="display:inline;opacity:0.15;fill:#000000;fill-opacity:1;fill-rule:nonzero;stroke:none" />
  <path
     style="display:inline;opacity:0.15;fill:#000000;fill-opacity:1;fill-rule:nonzero;stroke:none"
     d="M 88.499998,0.75 H 7.4999906 C 3.7604987,0.75 0.74999765,3.760499 0.74999765,7.4999969 V 88.5 c 0,3.739501 3.01050105,6.75 6.74999295,6.75 H 88.499998 c 3.739503,0 6.750003,-3.010499 6.750003,-6.75 V 7.4999969 C 95.250001,3.760499 92.239501,0.75 88.499998,0.75 Z"
     id="path4085"
     inkscape:connector-curvature="0" />
  <path
     inkscape:connector-curvature="0"
     id="rect4251-1"
     d="M 87.857137,1.5 H 8.1428547 C 4.4627116,1.5 1.4999981,4.462713 1.4999981,8.1428549 V 87.857145 c 0,3.680142 2.9627135,6.642856 6.6428566,6.642856 H 87.857137 c 3.680143,0 6.642854,-2.962714 6.642854,-6.642856 V 8.1428549 C 94.499991,4.462713 91.53728,1.5 87.857137,1.5 Z"
     style="display:inline;fill:url(#linearGradient4071);fill-opacity:1;fill-rule:nonzero;stroke:none" />
  <path
     sodipodi:nodetypes="sscccsccscccsss"
     inkscape:connector-curvature="0"
     id="path3400-6"
     d="m 10.373226,6.3871422 c -2.9301607,0 -5.2562705,2.3033257 -5.2562705,5.2047798 v 21.567301 7.28669 40.174386 c 1.1255356,1.695488 3.0454092,2.830098 5.2562705,2.830098 h 4.205015 67.280256 4.205015 c 2.210861,0 4.130734,-1.13461 5.25627,-2.830098 V 40.445913 33.159223 11.591922 c 0,-2.9014541 -2.32611,-5.2047798 -5.25627,-5.2047798 z"
     style="display:inline;opacity:0.87300002;fill:#0066ff;fill-opacity:1;fill-rule:nonzero;stroke:none;stroke-width:1.04609227" />
  <path
     style="opacity:1;fill:#ffffff;fill-opacity:0.41509435;stroke:none;stroke-width:0.93973494;stroke-miterlimit:4;stroke-dasharray:none;stroke-opacity:1"
     d="m 78.432875,45.84748 c 0,14.237809 -13.415575,25.779833 -29.964526,25.779833 -2.727756,0 -5.370382,-0.313583 -7.881831,-0.901133 -2.239205,-0.523858 -11.123127,5.528687 -11.123127,5.528687 0,0 0.889306,-9.615183 -0.647839,-10.723572 C 22.25722,60.802278 17.92037,53.785539 17.92037,45.84748 c 0,-14.237809 13.832328,-26.529989 30.381278,-26.529989 16.548951,0 30.131227,12.29218 30.131227,26.529989 z"
     id="path852"
     inkscape:connector-curvature="0"
     sodipodi:nodetypes="ssscssss" />
  <path
     style="color:#000000;font-style:normal;font-variant:normal;font-weight:normal;font-stretch:normal;font-size:medium;line-height:normal;font-family:Sans;-inkscape-font-specification:Sans;text-indent:0;text-align:start;text-decoration:none;text-decoration-line:none;letter-spacing:normal;word-spacing:normal;text-transform:none;writing-mode:lr-tb;direction:ltr;baseline-shift:baseline;text-anchor:start;display:inline;overflow:visible;visibility:visible;fill:#505051;fill-opacity:0.9764151;stroke:none;stroke-width:2.3755002;marker:none;enable-background:accumulate"
     d="m 9.8250777,4.7294609 c -3.116621,0 -5.667965,2.53951 -5.667965,5.6460041 v 69.277996 c 0,3.106495 2.551344,5.646004 5.667965,5.646004 H 86.616863 c 3.116621,0 5.667968,-2.539509 5.667968,-5.646004 V 10.375465 c 0,-3.1064931 -2.551347,-5.6460041 -5.667968,-5.6460041 z m 0,2.319439 H 86.616863 c 1.888099,0 3.352022,1.480095 3.352022,3.3265651 v 69.277996 c 0,1.846474 -1.463923,3.326564 -3.352022,3.326564 H 9.8250777 c -1.888099,0 -3.352022,-1.48009 -3.352022,-3.326564 V 10.375465 c 0,-1.8464701 1.463923,-3.3265651 3.352022,-3.3265651 z"
     id="path4989"
     inkscape:connector-curvature="0" />
  <path
     id="path4118"
     d="m 1.499997,81.84375 v 6 c 0,3.680142 2.9761066,6.65625 6.6562497,6.65625 H 87.843747 c 3.680143,0 6.656254,-2.976108 6.656254,-6.65625 v -6 c 0,3.680142 -2.976111,6.65625 -6.656254,6.65625 H 8.1562467 C 4.4761036,88.5 1.4999971,85.523892 1.499997,81.84375 Z"
     style="display:inline;opacity:0.65818182;fill:url(#linearGradient4129);fill-opacity:1;fill-rule:nonzero;stroke:none"
     inkscape:connector-curvature="0" />
  <rect
     ry="4.25"
     rx="4.25"
     y="80.250008"
     x="5.3749976"
     height="4.25"
     width="84.250008"
     id="rect4131"
     style="opacity:0.55;fill:url(#radialGradient7462);fill-opacity:1;stroke:none" />
  <rect
     transform="rotate(90)"
     style="opacity:0.669;fill:url(#radialGradient7464);fill-opacity:1;stroke:none"
     id="rect4141"
     width="76.75"
     height="4.25"
     x="5.5599961"
     y="-90.085007"
     rx="4.25"
     ry="4.25" />
  <g
     id="g3043"
     inkscape:export-filename="folder.png"
     inkscape:export-xdpi="90"
     inkscape:export-ydpi="90"
     transform="translate(-0.62500009,32.082283)" />
  <g
     id="scalable"
     transform="matrix(1.0385892,0,0,1.0385892,1214.7222,1910.8121)"
     inkscape:label="#g3701"
     style="fill:#ffffff" />
  <path
     sodipodi:nodetypes="sscccsss"
     id="path4145"
     d="m 50,20.836528 c -16.801316,0 -30.42316,11.956255 -30.42316,26.701909 0,8.40344 4.426321,15.896651 11.340109,20.794251 v 10.182784 l 10.355098,-5.390885 c 2.761769,0.722309 5.691868,1.11576 8.727954,1.11576 16.801314,0 30.423158,-11.956254 30.423158,-26.70191 C 80.423159,32.792783 66.801315,20.836528 50,20.836528 Z"
     style="fill:none;stroke:#1c1f24;stroke-width:2;stroke-linecap:butt;stroke-linejoin:miter;stroke-miterlimit:4;stroke-dasharray:none;stroke-opacity:1;opacity:0.491;filter:url(#filter4692)"
     inkscape:connector-curvature="0" />
  <path
     inkscape:connector-curvature="0"
     style="fill:none;stroke:#e6f4ff;stroke-width:2;stroke-linecap:butt;stroke-linejoin:miter;stroke-miterlimit:4;stroke-dasharray:none;stroke-opacity:1"
     d="m 48,18.836528 c -16.801316,0 -30.42316,11.956255 -30.42316,26.701909 0,8.40344 4.426321,15.896651 11.340109,20.794251 v 10.182784 l 10.355098,-5.390885 c 2.761769,0.722309 5.691868,1.11576 8.727954,1.11576 16.801314,0 30.423158,-11.956254 30.423158,-26.70191 C 78.423159,30.792783 64.801315,18.836528 48,18.836528 Z"
     id="path9"
     sodipodi:nodetypes="sscccsss" />
  <path
     sodipodi:nodetypes="ccccccc"
     id="path4147"
     d="M 72.526049,39.870146 53.555243,60.129853 44.716903,50.646891 27.473951,60.129853 46.444757,39.870146 55.496406,49.35311 Z"
     style="fill:none;fill-opacity:1;stroke:#1c1f24;stroke-width:1;stroke-linecap:round;stroke-linejoin:round;opacity:0.491;filter:url(#filter4696)"
     inkscape:connector-curvature="0" />
  <path
     inkscape:connector-curvature="0"
     style="fill:#e6f4ff;fill-opacity:1;stroke-width:1;stroke-linecap:round;stroke-linejoin:round"
     d="M 70.526049,37.870146 51.555243,58.129853 42.716903,48.646891 25.473951,58.129853 44.444757,37.870146 53.496406,47.35311 Z"
     id="path11"
     sodipodi:nodetypes="ccccccc" />
  <rect
     clip-path="url(#clipPath4156-4-1)"
     ry="3.9569881"
     rx="3.9569874"
     y="-30"
     x="2"
     height="69.024437"
     width="75.965775"
     id="rect4146"
     style="opacity:0.39800002;fill:url(#linearGradient4767);fill-opacity:1;stroke:none"
     transform="matrix(1.0692451,0,0,1.0476829,4.2952237,38.478987)" />
</svg>

<?xml version="1.0" encoding="UTF-8"?>
<!-- Created with Inkscape (http://www.inkscape.org/) -->
<svg version="1.1" viewBox="0 0 96 96" xmlns="http://www.w3.org/2000/svg" xmlns:cc="http://creativecommons.org/ns#" xmlns:dc="http://purl.org/dc/elements/1.1/" xmlns:rdf="http://www.w3.org/1999/02/22-rdf-syntax-ns#" xmlns:xlink="http://www.w3.org/1999/xlink">
<defs>
<linearGradient id="linearGradient4071" x1="6" x2="90" y1="47" y2="47" gradientTransform="matrix(1.1071 0 0 1.1071 -5.1429 -4.0357)" gradientUnits="userSpaceOnUse">
<stop stop-color="#adb8c1" offset="0"/>
<stop stop-color="#fff" offset=".25"/>
<stop stop-color="#90a0aa" offset=".5"/>
<stop stop-color="#f9fafb" offset=".75"/>
<stop stop-color="#adb9c1" offset="1"/>
</linearGradient>
<linearGradient id="linearGradient4129" x1="1.5" x2="94.5" y1="88.172" y2="88.172" gradientTransform="translate(-3e-6,2.6e-5)" gradientUnits="userSpaceOnUse">
<stop offset="0"/>
<stop stop-opacity=".58824" offset=".1"/>
<stop stop-opacity=".58824" offset=".9"/>
<stop offset="1"/>
</linearGradient>
<radialGradient id="radialGradient7462" cx="13.948" cy="44.893" r="43.199" gradientTransform="matrix(.97513 0 0 .049191 33.899 80.167)" gradientUnits="userSpaceOnUse" xlink:href="#linearGradient3737"/>
<linearGradient id="linearGradient3737">
<stop stop-color="#fff" offset="0"/>
<stop stop-color="#fff" stop-opacity="0" offset="1"/>
</linearGradient>
<radialGradient id="radialGradient7464" cx="13.948" cy="44.893" r="43.199" gradientTransform="matrix(.88833 0 0 .049191 31.545 -90.168)" gradientUnits="userSpaceOnUse" xlink:href="#linearGradient3737"/>
<linearGradient id="linearGradient4767" x1="2.7714" x2="50.528" y1="-28.642" y2="14.514" gradientTransform="translate(-2.1155e-7 2.4738e-5)" gradientUnits="userSpaceOnUse" xlink:href="#linearGradient3737"/>
<clipPath id="clipPath4156-4-1">
<path d="m27.046-55.695-14.214 13.321h0.06127l15.653 21.771 10.231-10.546c-0.2169-1.1522-11.311-23.67-11.732-24.546zm-17.399 16.313-14.888 14.062 21.229 17.515 10.385-10.577zm31.491 12.951-9.7413 9.7136 8.9448 12.458 7.7808-7.555zm-49.84 4.3788-13.754 12.982 26.283 13.846 0.06127-0.0617-0.12253-0.0617 9.8332-10.053-22.301-16.652zm38.015 7.4008-9.8025 9.7753 11.579 9.5594 7.6276-7.4008-8.6691-11.009zm20.187 5.674-7.3825 7.2158 6.1878 8.5418 5.8202-6.1365zm-32.195 6.3215-9.5575 9.4977 13.662 7.185 7.9339-7.6784zm23.312 2.3744-7.1068 6.9383 8.3628 6.9074 5.3608-5.674-0.06127-0.0925-0.0919 0.12335-6.4635-8.2026zm-8.7304 8.5418-7.5051 7.3392 10.354 5.4581c1.3975-1.321 5.6751-6.1229 5.8509-6.3215z" fill="#fff" opacity=".6"/>
</clipPath>
<filter id="filter4692" x="-.011688" y="-.012329" width="1.0234" height="1.0247" color-interpolation-filters="sRGB">
<feGaussianBlur stdDeviation="0.29631316"/>
</filter>
<filter id="filter4696" x="-.015785" y="-.035102" width="1.0316" height="1.0702" color-interpolation-filters="sRGB">
<feGaussianBlur stdDeviation="0.29631316"/>
</filter>
</defs>
<metadata>
<rdf:RDF>
<cc:Work rdf:about="">
<dc:format>image/svg+xml</dc:format>
<dc:type rdf:resource="http://purl.org/dc/dcmitype/StillImage"/>
<dc:title/>
</cc:Work>
</rdf:RDF>
</metadata>
<path d="m89.143 0h-82.286c-3.7988 0-6.8571 3.0583-6.8571 6.8571v82.286c0 3.7989 3.0583 6.8571 6.8571 6.8571h82.286c3.7989 0 6.8571-3.0583 6.8571-6.8571v-82.286c0-3.7989-3.0583-6.8571-6.8571-6.8571z" opacity=".15"/>
<path d="m88.5 0.75h-81c-3.7395 0-6.75 3.0105-6.75 6.75v81c0 3.7395 3.0105 6.75 6.75 6.75h81c3.7395 0 6.75-3.0105 6.75-6.75v-81c0-3.7395-3.0105-6.75-6.75-6.75z" opacity=".15"/>
<path d="m87.857 1.5h-79.714c-3.6801 0-6.6429 2.9627-6.6429 6.6429v79.714c0 3.6801 2.9627 6.6429 6.6429 6.6429h79.714c3.6801 0 6.6429-2.9627 6.6429-6.6429v-79.714c0-3.6801-2.9627-6.6429-6.6429-6.6429z" fill="url(#linearGradient4071)"/>
<path d="m10.373 6.3871c-2.9302 0-5.2563 2.3033-5.2563 5.2048v69.028c1.1255 1.6955 3.0454 2.8301 5.2563 2.8301h75.69c2.2109 0 4.1307-1.1346 5.2563-2.8301v-69.028c0-2.9015-2.3261-5.2048-5.2563-5.2048z" fill="#06f" opacity=".873"/>
<path d="m78.433 45.847c0 14.238-13.416 25.78-29.965 25.78-2.7278 0-5.3704-0.31358-7.8818-0.90113-2.2392-0.52386-11.123 5.5287-11.123 5.5287s0.88931-9.6152-0.64784-10.724c-6.5583-4.729-10.895-11.746-10.895-19.684 0-14.238 13.832-26.53 30.381-26.53 16.549 0 30.131 12.292 30.131 26.53z" fill="#fff" fill-opacity=".41509"/>
<path d="m9.8251 4.7295c-3.1166 0-5.668 2.5395-5.668 5.646v69.278c0 3.1065 2.5513 5.646 5.668 5.646h76.792c3.1166 0 5.668-2.5395 5.668-5.646v-69.278c0-3.1065-2.5513-5.646-5.668-5.646zm0 2.3194h76.792c1.8881 0 3.352 1.4801 3.352 3.3266v69.278c0 1.8465-1.4639 3.3266-3.352 3.3266h-76.792c-1.8881 0-3.352-1.4801-3.352-3.3266v-69.278c0-1.8465 1.4639-3.3266 3.352-3.3266z" color="#000000" fill="#505051" fill-opacity=".97642" style="text-decoration-line:none;text-indent:0;text-transform:none"/>
<path d="m1.5 81.844v6c0 3.6801 2.9761 6.6562 6.6562 6.6562h79.688c3.6801 0 6.6563-2.9761 6.6563-6.6562v-6c0 3.6801-2.9761 6.6562-6.6563 6.6562h-79.688c-3.6801 0-6.6562-2.9761-6.6562-6.6562z" fill="url(#linearGradient4129)" opacity=".65818"/>
<rect x="5.375" y="80.25" width="84.25" height="4.25" rx="4.25" ry="4.25" fill="url(#radialGradient7462)" opacity=".55"/>
<rect transform="rotate(90)" x="5.56" y="-90.085" width="76.75" height="4.25" rx="4.25" ry="4.25" fill="url(#radialGradient7464)" opacity=".669"/>
<path d="m50 20.837c-16.801 0-30.423 11.956-30.423 26.702 0 8.4034 4.4263 15.897 11.34 20.794v10.183l10.355-5.3909c2.7618 0.72231 5.6919 1.1158 8.728 1.1158 16.801 0 30.423-11.956 30.423-26.702 0-14.746-13.622-26.702-30.423-26.702z" fill="none" filter="url(#filter4692)" opacity=".491" stroke="#1c1f24" stroke-width="2"/>
<path d="m48 18.837c-16.801 0-30.423 11.956-30.423 26.702 0 8.4034 4.4263 15.897 11.34 20.794v10.183l10.355-5.3909c2.7618 0.72231 5.6919 1.1158 8.728 1.1158 16.801 0 30.423-11.956 30.423-26.702 0-14.746-13.622-26.702-30.423-26.702z" fill="none" stroke="#e6f4ff" stroke-width="2"/>
<path d="m72.526 39.87-18.971 20.26-8.8383-9.483-17.243 9.483 18.971-20.26 9.0516 9.483z" fill="none" filter="url(#filter4696)" opacity=".491" stroke="#1c1f24" stroke-linecap="round" stroke-linejoin="round"/>
<path d="m70.526 37.87-18.971 20.26-8.8383-9.483-17.243 9.483 18.971-20.26 9.0516 9.483z" fill="#e6f4ff" stroke-linecap="round" stroke-linejoin="round"/>
<rect transform="matrix(1.0692 0 0 1.0477 4.2952 38.479)" x="2" y="-30" width="75.966" height="69.024" rx="3.957" ry="3.957" clip-path="url(#clipPath4156-4-1)" fill="url(#linearGradient4767)" opacity=".398"/>
</svg>
